X:1
T:Balada da récita de medicina 1917
T:Balada
T:Récita dos estudantes de medicina UC 1917
T:Fernando Correia
T:Galáxia Sonora Coimbrã 2020 (A. Caetano)
T:Galáxia Sonora Coimbrã 2020 (A. Caetano)
C:Fernando Correia
Z:Galáxia Sonora Coimbrã 2020 (A. Caetano)
%%score ( 1 2 ) { ( 3 5 ) | 4 }
L:1/8
Q:1/4=90
M:4/4
K:G
V:1 treble-8 nm="Voz"
V:2 treble-8 
V:3 treble nm="Piano"
V:5 treble 
V:4 bass 
V:1
"^Maestoso" z8 | z8 | z8 | z8 | z8 | z8 | z8 | z8 | z8 | z8 | z8 | z6 z3/2"^Solo" B,/ |: %12
w: |||||||||||Nes-|
 GFE^D FEDF | E6 z E | ^GGGG BAAG | A6 z A | =FFDE FF A>A | c6 z =F | AD^GG BA{/B} A>G |1 %19
w: ta ter- ra de so- nho nós vi-|ve\-mos Pa-|ra'a- rran- jar Pas- sa- do'á nos- sa|vi\-da, Por-|que'o fu- tu- ro, ' a- ca- so, que'en- con-|tre\-mos É|bem pre- sen- te'en- quan- to du- ra a|
 A6 z3/2 B,/ :|2 A6 z2 ||[K:A]"^Coro" C>C F>F [CFA]4 | GF^EG F4 | F>F ^A>A c4 | BBBc d4 | %25
w: li\-da. Se'a||E a vi- tó- ria'en- tão,|Há- de re- fle- tir|O es- for- ço feito|pa- ra'a con- se- guir|
 cc^AA e4 | BBBc d4 | F>F ^A>A c4 | BB^AB !fermata!B3 A |:"^Solo" AGAB AGBA | G6 z c | %31
w: A Co- im- bra'a- ssim|An- da- rá li- gado|Es- se gran- de'es- forço|Já en- tão pas- sado. Se'a-|qui- lo que fi- ze- mos em ra-|pazes Nos|
 c^Bcd c^A=Bc | d6 z B | cBEF =GGBc |1 d6 z =G | BE^AA cB{/c} B>A | B6 z A :| d6 z B | %38
w: deu al- gum im- pul- so de von-|tade, No|vi- ver de'a- ma- nhã so- mos ca-|pazes De|ven- cer, a lu- tar em to- da'e-|dade. *|pazes de|
 cB^AB cc !fermata!f>B | B6 z2 ||"^Coro""^Piu mosso" C>C F>F [CFA]4 | GF^EG [FA]4 | %42
w: ven- cer a lu- tar em to- da'e-|dade.|E'a vi- tó- ria'en- tão,|Há- de re- fle- tir|
 F>F ^A>A [Fc]4 | [DFB]B[DFB]c [FBd]4 | [F^Ac]c[FA]A [Ae]4 | [DFB]B[DFB]c [FBd]4 | F>F ^A>A [FA]4 | %47
w: O es- for- ço feito|Pa- ra'a con- se- guir|A Co- im- bra'as- sim|An- da- rá li- gado|Es- se gran- de'es- forço|
 [DFB]B[CF^A]B [DFB]4 | [E=G]2 [CE]2 [^A,C]2- [A,C]/E/G/F/ | [B,DF]FB^A AA !fermata!c>[DB] | %50
w: Já en- tão pas- sado.|||
 [B,DFB]6 z2 |] %51
w: |
V:2
 x8 | x8 | x8 | x8 | x8 | x8 | x8 | x8 | x8 | x8 | x8 | x8 |: x8 | x8 | x8 | x8 | x8 | x8 | x8 |1 %19
 x8 :|2 x8 ||[K:A] x8 | x8 | x8 | x8 | x8 | x8 | x8 | x8 |: x8 | x8 | x8 | x8 | x8 |1 x8 | x8 | %36
 x8 :| x8 | x8 | x8 || x8 | D4 C4 | x8 | x8 | x8 | x8 | C2 [CF]2 c4 | x8 | x8 | x8 | x8 |] %51
V:3
 !>![EGB]4 !>![CEA]4 | !>![CEG]4- [CEG](EFG | F)(B,^DF G)(DEF | [EG]6) z2 | [EGB]4 [CEA]4 | %5
 [CEG]4- [CEG](GFE | C)(E^DC B,)(D^^CD | E6) z2 |!ff! [A,CE]4 [CEA]4 | [CF]4- [CF](CB,A, | %10
 A,)(B,CB, ^D)B, !fermata!B>E | E6 z3/2 B,/ |: GFE^D FEDF | E6 z E | ^GGGG BAAG | A6 z A | %16
 =FFDE FF A>A | c6 z =F | AD^GG BA{/B} A>G |1 A6 z3/2 B,/ :|2 A6 z2 ||[K:A] C>C F>F [CFA]4 | %22
 D4 C4 | F>F ^A>A [Fc]4 | [DB]B[DB]c [DFd]4 | [F^Ac]cAA [FAe]4 | [DFB]B[DFB]c [FBd]4 | %27
 C2 [CF]2 c4 | [DFB]B[CF^A]B !fermata![DFB]3 A |: AGAB AGBA | G6 z c | c^Bcd c^A=Bc | d6 z B | %33
 cBEF =GGBc |1 d6 z =G | BE^AA cB{/c} B>[EA] | B6 z A :| d6 z B | cB^AB cc !fermata!f>B | B6 z2 || %40
 C>C F>F [CFA]4 | D4 C4 | F>F ^A>A [Fc]4 | [DFB]B[DFB]c [FBd]4 | [F^Ac]c[FA]A [Ae]4 | %45
 [DFB]B[DFB]c [FBd]4 | C2 [CF]2 c4 | [DFB]B[CF^A]B [DFB]4 | [E=G]2 [CE]2 [^A,C]2- [A,C]/E/G/F/ | %49
 [B,DF]FB^A AA !fermata!c>[DB] | [B,DFB]6 z2 |] %51
V:4
 [E,,E,]4 [C,,C,]4 | [A,,,A,,]4 z2 [E,A,]2 | [B,,,B,,]2 z2 B,,2 [B,,^D,F,A,]2 | [E,,B,,E,]6 z2 | %4
 [E,,E,]4 [C,,C,]4 | [A,,,C,]6 [C,F,A,]2 | A,,2 [F,A,]2 B,,2 [F,B,]2 | [E,,B,,E,]6 z2 | C,4 A,,4 | %9
 [C,F,A,]4- [C,F,A,]2 z2 | A,,2 [E,A,]2 B,,2 [F,B,]2 | [E,G,B,]6 z2 |: %12
 [E,,E,]2 [E,G,B,]2 [B,,,B,,]2 [^D,F,B,]2 | [E,,E,]2 [E,G,B,]2 [E,G,B,]2 [E,G,B,]2 | %14
 [E,,E,]2 [E,^G,D]2 [E,,E,]2 [E,G,D]2 | A,,2 [E,A,C]2 [E,A,C]2 [E,A,C]2 | %16
 [D,,D,]2 [=F,A,B,]2 [F,A,B,]2 [F,A,B,]2 | A,,2 [E,A,C]2 [E,A,C]2 [E,A,C]2 | %18
 [D,,D,]2 [E,B,]2 [E,,E,]2 [^G,B,]2 |1 [A,,A,]2 [E,,E,]2 [A,,,A,,]2 z2 :|2 A,2 E,2 A,,2 z2 || %21
[K:A] F,,2 [C,F,A,]2 [C,F,A,]2 [C,F,A,]2 | F,,2 [^E,G,B,]2 [F,A,]2 [F,A,]2 | %23
 F,,2 [^A,CE]2 [A,CE]2 [A,CE]2 | B,,2 [D,F,B,]2 [D,F,B,]2 [D,F,B,]2 | %25
 F,,2 [F,^A,C]2 [F,A,C]2 [F,A,C]2 | [B,,,B,,]2 [D,F,B,]2 [D,F,B,]2 [D,F,B,]2 | %27
 F,,2 [^A,CE]2 [A,CE]2 [A,CE]2 | [B,,F,B,]2 [F,,^A,,C,F,]2 [B,,D,F,B,]2 z2 |: %29
 F,,2 [C,F,A,]2 F,,2 [C,F,A,]2 | C,2 [^E,G,C]2 [E,G,C]2 [E,G,C]2 | ^A,,2 [F,^A,C]2 F,,2 [F,A,E]2 | %32
 B,,2 [D,F,B,]2 [D,F,B,]2 [D,F,B,]2 | E,,2 [E,=G,B,]2 [E,G,B,]2 [E,G,B,]2 |1 %34
 F,,2 [D,F,B,]2 [D,F,B,]2 B,,2 | E,,2 [F,^A,C]2 F,,2 [F,A,C]2 | %36
 B,,2 [D,F,B,]2 [D,F,B,]2 [D,F,B,]2 :| F,,2 [D,F,B,]2 [D,F,B,]2 [D,F,B,]2 | %38
 F,,2 [F,^A,C]2 F,,2 [F,A,C]2 | B,2 F,2 B,,2 z2 || F,,2 [C,F,A,]2 [C,F,A,]2 [C,F,A,]2 | %41
 F,,2 [^E,G,B,]2 [F,A,]2 [F,A,]2 | F,,2 [F,^A,]2 [F,A,]2 [F,A,]2 | %43
 B,,2 [D,F,B,]2 [D,F,B,]2 [D,F,B,]2 | F,,2 [F,^A,E]2 [F,A,E]2 [F,A,E]2 | %45
 B,,2 [D,F,B,]2 [D,F,B,]2 [D,F,B,]2 | F,,2 [^A,CE]2 [A,CE]2 [A,CE]2 | %47
 [B,,F,B,]2 [F,,^A,,C,F,]2 [B,,D,F,B,]4 | [E,,E,]4 [F,,F,]4 | [F,,B,,D,F,]2 z2 [F,,^A,,C,F,]2 z2 | %50
 [B,,,B,,]6 z2 |] %51
V:5
 x8 | x8 | x8 | x8 | x8 | x8 | x8 | x8 | x8 | x8 | x8 | x8 |: x8 | z3/2 B/ e>e g z z2 | x8 | %15
 z3/2 e/ a>a c' z z2 | x8 | x3/2 e/ c>c e z z2 | x8 |1 x8 :|2 x8 ||[K:A] x8 | GF^EG [FA]4 | x8 | %24
 x8 | x8 | x8 | F>F ^A>A [FA]4 | x8 |: x8 | x8 | x8 | x8 | x8 |1 x8 | x8 | x8 :| x8 | x8 | x8 || %40
 x8 | GF^EG [FA]4 | x8 | x8 | x8 | x8 | F>F ^A>A [FA]4 | x8 | x8 | x8 | x8 |] %51

